TileServer und Tiles/svg/9/90_27.svg

<?xml version='1.0' encoding='UTF-8' standalone='no'?>
<svg xmlns="http://www.w3.org/2000/svg" width="497pt" viewBox="0 0 497 279" xmlns:xlink="http://www.w3.org/1999/xlink" height="279pt">
 <defs style="stroke:none;" overflow="visible">
  <path id="glyph0-9" d="M 3.3125 -4.6875 L 1.96875 -4.6875 L 1.96875 0 L 1.09375 0 L 1.09375 -4.6875 L 0.15625 -4.6875 L 0.15625 -5.09375 L 1.09375 -5.390625 L 1.09375 -5.703125 C 1.09375 -6.390625 1.242188 -6.882812 1.546875 -7.1875 C 1.859375 -7.5 2.285156 -7.65625 2.828125 -7.65625 C 3.046875 -7.65625 3.242188 -7.632812 3.421875 -7.59375 C 3.597656 -7.5625 3.75 -7.519531 3.875 -7.46875 L 3.640625 -6.78125 C 3.535156 -6.8125 3.410156 -6.84375 3.265625 -6.875 C 3.128906 -6.914062 2.988281 -6.9375 2.84375 -6.9375 C 2.550781 -6.9375 2.332031 -6.835938 2.1875 -6.640625 C 2.039062 -6.441406 1.96875 -6.128906 1.96875 -5.703125 L 1.96875 -5.359375 L 3.3125 -5.359375 Z M 3.3125 -4.6875 "/>
  <path id="glyph0-8" d="M 1.296875 -7.375 C 1.429688 -7.375 1.550781 -7.328125 1.65625 -7.234375 C 1.757812 -7.140625 1.8125 -7 1.8125 -6.8125 C 1.8125 -6.625 1.757812 -6.484375 1.65625 -6.390625 C 1.550781 -6.296875 1.429688 -6.25 1.296875 -6.25 C 1.148438 -6.25 1.023438 -6.296875 0.921875 -6.390625 C 0.828125 -6.484375 0.78125 -6.625 0.78125 -6.8125 C 0.78125 -7 0.828125 -7.140625 0.921875 -7.234375 C 1.023438 -7.328125 1.148438 -7.375 1.296875 -7.375 Z M 1.734375 -5.359375 L 1.734375 0 L 0.84375 0 L 0.84375 -5.359375 Z M 1.734375 -5.359375 "/>
  <path id="glyph0-7" d="M 3.4375 -5.453125 C 4.070312 -5.453125 4.550781 -5.296875 4.875 -4.984375 C 5.207031 -4.679688 5.375 -4.179688 5.375 -3.484375 L 5.375 0 L 4.5 0 L 4.5 -3.4375 C 4.5 -4.289062 4.097656 -4.71875 3.296875 -4.71875 C 2.703125 -4.71875 2.289062 -4.550781 2.0625 -4.21875 C 1.84375 -3.882812 1.734375 -3.40625 1.734375 -2.78125 L 1.734375 0 L 0.84375 0 L 0.84375 -5.359375 L 1.5625 -5.359375 L 1.6875 -4.625 L 1.734375 -4.625 C 1.910156 -4.90625 2.148438 -5.113281 2.453125 -5.25 C 2.765625 -5.382812 3.09375 -5.453125 3.4375 -5.453125 Z M 3.4375 -5.453125 "/>
  <path id="glyph0-6" d="M 1.71875 -7.59375 L 1.71875 -3.625 C 1.71875 -3.519531 1.710938 -3.378906 1.703125 -3.203125 C 1.691406 -3.035156 1.6875 -2.890625 1.6875 -2.765625 L 1.71875 -2.765625 C 1.757812 -2.816406 1.816406 -2.890625 1.890625 -2.984375 C 1.972656 -3.085938 2.054688 -3.191406 2.140625 -3.296875 C 2.222656 -3.398438 2.296875 -3.484375 2.359375 -3.546875 L 4.0625 -5.359375 L 5.09375 -5.359375 L 2.9375 -3.0625 L 5.25 0 L 4.1875 0 L 2.328125 -2.5 L 1.71875 -1.96875 L 1.71875 0 L 0.84375 0 L 0.84375 -7.59375 Z M 1.71875 -7.59375 "/>
  <path id="glyph0-5" d="M 5.234375 -0.015625 L 4.3125 -3.03125 C 4.226562 -3.300781 4.148438 -3.566406 4.078125 -3.828125 C 4.015625 -4.097656 3.96875 -4.304688 3.9375 -4.453125 L 3.90625 -4.453125 C 3.875 -4.304688 3.828125 -4.097656 3.765625 -3.828125 C 3.710938 -3.566406 3.640625 -3.296875 3.546875 -3.015625 L 2.578125 -0.015625 L 1.578125 -0.015625 L 0.109375 -5.375 L 1.015625 -5.375 L 1.765625 -2.515625 C 1.835938 -2.222656 1.90625 -1.929688 1.96875 -1.640625 C 2.03125 -1.347656 2.078125 -1.101562 2.109375 -0.90625 L 2.15625 -0.90625 C 2.175781 -1.019531 2.203125 -1.160156 2.234375 -1.328125 C 2.273438 -1.492188 2.316406 -1.664062 2.359375 -1.84375 C 2.410156 -2.03125 2.460938 -2.195312 2.515625 -2.34375 L 3.453125 -5.375 L 4.421875 -5.375 L 5.34375 -2.34375 C 5.414062 -2.125 5.484375 -1.878906 5.546875 -1.609375 C 5.617188 -1.335938 5.671875 -1.109375 5.703125 -0.921875 L 5.734375 -0.921875 C 5.753906 -1.085938 5.800781 -1.316406 5.875 -1.609375 C 5.945312 -1.898438 6.019531 -2.203125 6.09375 -2.515625 L 6.84375 -5.375 L 7.75 -5.375 L 6.265625 -0.015625 Z M 5.234375 -0.015625 "/>
  <path id="glyph0-4" d="M 5.515625 -2.6875 C 5.515625 -1.800781 5.285156 -1.113281 4.828125 -0.625 C 4.378906 -0.144531 3.773438 0.09375 3.015625 0.09375 C 2.535156 0.09375 2.109375 -0.0078125 1.734375 -0.21875 C 1.367188 -0.4375 1.078125 -0.753906 0.859375 -1.171875 C 0.648438 -1.585938 0.546875 -2.09375 0.546875 -2.6875 C 0.546875 -3.570312 0.769531 -4.253906 1.21875 -4.734375 C 1.664062 -5.210938 2.273438 -5.453125 3.046875 -5.453125 C 3.523438 -5.453125 3.945312 -5.34375 4.3125 -5.125 C 4.6875 -4.914062 4.976562 -4.601562 5.1875 -4.1875 C 5.40625 -3.78125 5.515625 -3.28125 5.515625 -2.6875 Z M 1.453125 -2.6875 C 1.453125 -2.050781 1.578125 -1.546875 1.828125 -1.171875 C 2.078125 -0.804688 2.476562 -0.625 3.03125 -0.625 C 3.570312 -0.625 3.96875 -0.804688 4.21875 -1.171875 C 4.46875 -1.546875 4.59375 -2.050781 4.59375 -2.6875 C 4.59375 -3.320312 4.46875 -3.816406 4.21875 -4.171875 C 3.96875 -4.535156 3.566406 -4.71875 3.015625 -4.71875 C 2.472656 -4.71875 2.078125 -4.535156 1.828125 -4.171875 C 1.578125 -3.816406 1.453125 -3.320312 1.453125 -2.6875 Z M 1.453125 -2.6875 "/>
  <path id="glyph0-3" d="M 1.734375 0 L 0.84375 0 L 0.84375 -7.59375 L 1.734375 -7.59375 Z M 1.734375 0 "/>
  <path id="glyph0-2" d="M 2.921875 -5.453125 C 3.378906 -5.453125 3.769531 -5.351562 4.09375 -5.15625 C 4.425781 -4.957031 4.679688 -4.675781 4.859375 -4.3125 C 5.035156 -3.945312 5.125 -3.523438 5.125 -3.046875 L 5.125 -2.515625 L 1.453125 -2.515625 C 1.472656 -1.898438 1.628906 -1.4375 1.921875 -1.125 C 2.222656 -0.8125 2.640625 -0.65625 3.171875 -0.65625 C 3.515625 -0.65625 3.816406 -0.6875 4.078125 -0.75 C 4.335938 -0.8125 4.609375 -0.898438 4.890625 -1.015625 L 4.890625 -0.25 C 4.617188 -0.125 4.347656 -0.0351562 4.078125 0.015625 C 3.816406 0.0664062 3.5 0.09375 3.125 0.09375 C 2.625 0.09375 2.175781 -0.00390625 1.78125 -0.203125 C 1.394531 -0.410156 1.09375 -0.71875 0.875 -1.125 C 0.65625 -1.539062 0.546875 -2.046875 0.546875 -2.640625 C 0.546875 -3.222656 0.644531 -3.722656 0.84375 -4.140625 C 1.039062 -4.566406 1.316406 -4.890625 1.671875 -5.109375 C 2.023438 -5.335938 2.441406 -5.453125 2.921875 -5.453125 Z M 2.90625 -4.734375 C 2.488281 -4.734375 2.15625 -4.597656 1.90625 -4.328125 C 1.664062 -4.066406 1.523438 -3.691406 1.484375 -3.203125 L 4.203125 -3.203125 C 4.203125 -3.660156 4.097656 -4.03125 3.890625 -4.3125 C 3.679688 -4.59375 3.351562 -4.734375 2.90625 -4.734375 Z M 2.90625 -4.734375 "/>
  <path id="glyph0-1" d="M 2.828125 -3.625 L 4.6875 -7.140625 L 5.65625 -7.140625 L 3.28125 -2.765625 L 3.28125 0 L 2.375 0 L 2.375 -2.734375 L 0 -7.140625 L 0.984375 -7.140625 Z M 2.828125 -3.625 "/>
  <path id="glyph0-0" d="M 0.9375 0 L 0.9375 -7.140625 L 5.046875 -7.140625 L 5.046875 0 Z M 1.453125 -0.515625 L 4.546875 -0.515625 L 4.546875 -6.625 L 1.453125 -6.625 Z M 1.453125 -0.515625 "/>
 </defs>
 <image width="497" xlink:href="svg/9/90_27.jpg" height="279"/>
 <g>
  <path d="M 270.6875 199.273438 L 272.546875 195.757812 L 273.515625 195.757812 L 271.140625 200.132812 L 271.140625 202.898438 L 270.234375 202.898438 L 270.234375 200.164062 L 267.859375 195.757812 L 268.84375 195.757812 Z M 270.6875 199.273438 " transform=" rotate(  340 294.046 199.9) " style="fill:none;stroke-width:3;stroke-linecap:butt;stroke-linejoin:round;stroke:rgb(100%,100%,100%);stroke-opacity:0.6;stroke-miterlimit:10;"/>
  <path d="M 275.941406 197.445312 C 276.398438 197.445312 276.789062 197.546875 277.113281 197.742188 C 277.445312 197.941406 277.699219 198.222656 277.878906 198.585938 C 278.054688 198.953125 278.144531 199.375 278.144531 199.851562 L 278.144531 200.382812 L 274.472656 200.382812 C 274.492188 201 274.648438 201.460938 274.941406 201.773438 C 275.242188 202.085938 275.660156 202.242188 276.191406 202.242188 C 276.535156 202.242188 276.835938 202.210938 277.097656 202.148438 C 277.355469 202.085938 277.628906 202 277.910156 201.882812 L 277.910156 202.648438 C 277.636719 202.773438 277.367188 202.863281 277.097656 202.914062 C 276.835938 202.964844 276.519531 202.992188 276.144531 202.992188 C 275.644531 202.992188 275.195312 202.894531 274.800781 202.695312 C 274.414062 202.488281 274.113281 202.179688 273.894531 201.773438 C 273.675781 201.359375 273.566406 200.851562 273.566406 200.257812 C 273.566406 199.675781 273.664062 199.175781 273.863281 198.757812 C 274.058594 198.332031 274.335938 198.007812 274.691406 197.789062 C 275.042969 197.5625 275.460938 197.445312 275.941406 197.445312 Z M 275.925781 198.164062 C 275.507812 198.164062 275.175781 198.300781 274.925781 198.570312 C 274.683594 198.832031 274.542969 199.207031 274.503906 199.695312 L 277.222656 199.695312 C 277.222656 199.238281 277.117188 198.867188 276.910156 198.585938 C 276.699219 198.304688 276.371094 198.164062 275.925781 198.164062 Z M 275.925781 198.164062 " transform=" rotate(  340 294.046 199.9) " style="fill:none;stroke-width:3;stroke-linecap:butt;stroke-linejoin:round;stroke:rgb(100%,100%,100%);stroke-opacity:0.6;stroke-miterlimit:10;"/>
  <path d="M 280.394531 202.898438 L 279.503906 202.898438 L 279.503906 195.304688 L 280.394531 195.304688 Z M 280.394531 202.898438 " transform=" rotate(  340 294.046 199.9) " style="fill:none;stroke-width:3;stroke-linecap:butt;stroke-linejoin:round;stroke:rgb(100%,100%,100%);stroke-opacity:0.6;stroke-miterlimit:10;"/>
  <path d="M 282.976562 202.898438 L 282.085938 202.898438 L 282.085938 195.304688 L 282.976562 195.304688 Z M 282.976562 202.898438 " transform=" rotate(  340 294.046 199.9) " style="fill:none;stroke-width:3;stroke-linecap:butt;stroke-linejoin:round;stroke:rgb(100%,100%,100%);stroke-opacity:0.6;stroke-miterlimit:10;"/>
  <path d="M 289.335938 200.210938 C 289.335938 201.097656 289.105469 201.785156 288.648438 202.273438 C 288.199219 202.753906 287.59375 202.992188 286.835938 202.992188 C 286.355469 202.992188 285.929688 202.890625 285.554688 202.679688 C 285.1875 202.460938 284.898438 202.144531 284.679688 201.726562 C 284.46875 201.3125 284.367188 200.804688 284.367188 200.210938 C 284.367188 199.328125 284.589844 198.644531 285.039062 198.164062 C 285.484375 197.6875 286.09375 197.445312 286.867188 197.445312 C 287.34375 197.445312 287.765625 197.554688 288.132812 197.773438 C 288.507812 197.984375 288.796875 198.296875 289.007812 198.710938 C 289.226562 199.117188 289.335938 199.617188 289.335938 200.210938 Z M 285.273438 200.210938 C 285.273438 200.847656 285.398438 201.351562 285.648438 201.726562 C 285.898438 202.09375 286.296875 202.273438 286.851562 202.273438 C 287.390625 202.273438 287.789062 202.09375 288.039062 201.726562 C 288.289062 201.351562 288.414062 200.847656 288.414062 200.210938 C 288.414062 199.578125 288.289062 199.082031 288.039062 198.726562 C 287.789062 198.363281 287.386719 198.179688 286.835938 198.179688 C 286.292969 198.179688 285.898438 198.363281 285.648438 198.726562 C 285.398438 199.082031 285.273438 199.578125 285.273438 200.210938 Z M 285.273438 200.210938 " transform=" rotate(  340 294.046 199.9) " style="fill:none;stroke-width:3;stroke-linecap:butt;stroke-linejoin:round;stroke:rgb(100%,100%,100%);stroke-opacity:0.6;stroke-miterlimit:10;"/>
  <path d="M 294.90625 202.882812 L 293.984375 199.867188 C 293.898438 199.597656 293.820312 199.332031 293.75 199.070312 C 293.6875 198.800781 293.640625 198.59375 293.609375 198.445312 L 293.578125 198.445312 C 293.546875 198.59375 293.5 198.800781 293.4375 199.070312 C 293.382812 199.332031 293.3125 199.601562 293.21875 199.882812 L 292.25 202.882812 L 291.25 202.882812 L 289.78125 197.523438 L 290.6875 197.523438 L 291.4375 200.382812 C 291.507812 200.675781 291.578125 200.96875 291.640625 201.257812 C 291.703125 201.550781 291.75 201.796875 291.78125 201.992188 L 291.828125 201.992188 C 291.847656 201.878906 291.875 201.738281 291.90625 201.570312 C 291.945312 201.40625 291.988281 201.234375 292.03125 201.054688 C 292.082031 200.867188 292.132812 200.703125 292.1875 200.554688 L 293.125 197.523438 L 294.09375 197.523438 L 295.015625 200.554688 C 295.085938 200.773438 295.15625 201.019531 295.21875 201.289062 C 295.289062 201.5625 295.34375 201.789062 295.375 201.976562 L 295.40625 201.976562 C 295.425781 201.8125 295.472656 201.582031 295.546875 201.289062 C 295.617188 201 295.691406 200.695312 295.765625 200.382812 L 296.515625 197.523438 L 297.421875 197.523438 L 295.9375 202.882812 Z M 294.90625 202.882812 " transform=" rotate(  340 294.046 199.9) " style="fill:none;stroke-width:3;stroke-linecap:butt;stroke-linejoin:round;stroke:rgb(100%,100%,100%);stroke-opacity:0.6;stroke-miterlimit:10;"/>
  <path d="M 299.25 195.304688 L 299.25 199.273438 C 299.25 199.378906 299.242188 199.519531 299.234375 199.695312 C 299.222656 199.863281 299.21875 200.007812 299.21875 200.132812 L 299.25 200.132812 C 299.289062 200.082031 299.347656 200.007812 299.421875 199.914062 C 299.503906 199.8125 299.585938 199.707031 299.671875 199.601562 C 299.753906 199.5 299.828125 199.414062 299.890625 199.351562 L 301.59375 197.539062 L 302.625 197.539062 L 300.46875 199.835938 L 302.78125 202.898438 L 301.71875 202.898438 L 299.859375 200.398438 L 299.25 200.929688 L 299.25 202.898438 L 298.375 202.898438 L 298.375 195.304688 Z M 299.25 195.304688 " transform=" rotate(  340 294.046 199.9) " style="fill:none;stroke-width:3;stroke-linecap:butt;stroke-linejoin:round;stroke:rgb(100%,100%,100%);stroke-opacity:0.6;stroke-miterlimit:10;"/>
  <path d="M 306.308594 197.445312 C 306.941406 197.445312 307.421875 197.601562 307.746094 197.914062 C 308.078125 198.21875 308.246094 198.71875 308.246094 199.414062 L 308.246094 202.898438 L 307.371094 202.898438 L 307.371094 199.460938 C 307.371094 198.609375 306.96875 198.179688 306.167969 198.179688 C 305.574219 198.179688 305.160156 198.347656 304.933594 198.679688 C 304.714844 199.015625 304.605469 199.492188 304.605469 200.117188 L 304.605469 202.898438 L 303.714844 202.898438 L 303.714844 197.539062 L 304.433594 197.539062 L 304.558594 198.273438 L 304.605469 198.273438 C 304.78125 197.992188 305.019531 197.785156 305.324219 197.648438 C 305.636719 197.515625 305.964844 197.445312 306.308594 197.445312 Z M 306.308594 197.445312 " transform=" rotate(  340 294.046 199.9) " style="fill:none;stroke-width:3;stroke-linecap:butt;stroke-linejoin:round;stroke:rgb(100%,100%,100%);stroke-opacity:0.6;stroke-miterlimit:10;"/>
  <path d="M 310.347656 195.523438 C 310.480469 195.523438 310.601562 195.570312 310.707031 195.664062 C 310.808594 195.757812 310.863281 195.898438 310.863281 196.085938 C 310.863281 196.273438 310.808594 196.414062 310.707031 196.507812 C 310.601562 196.601562 310.480469 196.648438 310.347656 196.648438 C 310.199219 196.648438 310.074219 196.601562 309.972656 196.507812 C 309.878906 196.414062 309.832031 196.273438 309.832031 196.085938 C 309.832031 195.898438 309.878906 195.757812 309.972656 195.664062 C 310.074219 195.570312 310.199219 195.523438 310.347656 195.523438 Z M 310.785156 197.539062 L 310.785156 202.898438 L 309.894531 202.898438 L 309.894531 197.539062 Z M 310.785156 197.539062 " transform=" rotate(  340 294.046 199.9) " style="fill:none;stroke-width:3;stroke-linecap:butt;stroke-linejoin:round;stroke:rgb(100%,100%,100%);stroke-opacity:0.6;stroke-miterlimit:10;"/>
  <path d="M 314.941406 198.210938 L 313.597656 198.210938 L 313.597656 202.898438 L 312.722656 202.898438 L 312.722656 198.210938 L 311.785156 198.210938 L 311.785156 197.804688 L 312.722656 197.507812 L 312.722656 197.195312 C 312.722656 196.507812 312.871094 196.015625 313.175781 195.710938 C 313.488281 195.398438 313.914062 195.242188 314.457031 195.242188 C 314.675781 195.242188 314.871094 195.265625 315.050781 195.304688 C 315.226562 195.335938 315.378906 195.378906 315.503906 195.429688 L 315.269531 196.117188 C 315.164062 196.085938 315.039062 196.054688 314.894531 196.023438 C 314.757812 195.984375 314.617188 195.960938 314.472656 195.960938 C 314.179688 195.960938 313.960938 196.0625 313.816406 196.257812 C 313.667969 196.457031 313.597656 196.769531 313.597656 197.195312 L 313.597656 197.539062 L 314.941406 197.539062 Z M 314.941406 198.210938 " transform=" rotate(  340 294.046 199.9) " style="fill:none;stroke-width:3;stroke-linecap:butt;stroke-linejoin:round;stroke:rgb(100%,100%,100%);stroke-opacity:0.6;stroke-miterlimit:10;"/>
  <path d="M 317.992188 197.445312 C 318.449219 197.445312 318.839844 197.546875 319.164062 197.742188 C 319.496094 197.941406 319.75 198.222656 319.929688 198.585938 C 320.105469 198.953125 320.195312 199.375 320.195312 199.851562 L 320.195312 200.382812 L 316.523438 200.382812 C 316.542969 201 316.699219 201.460938 316.992188 201.773438 C 317.292969 202.085938 317.710938 202.242188 318.242188 202.242188 C 318.585938 202.242188 318.886719 202.210938 319.148438 202.148438 C 319.40625 202.085938 319.679688 202 319.960938 201.882812 L 319.960938 202.648438 C 319.6875 202.773438 319.417969 202.863281 319.148438 202.914062 C 318.886719 202.964844 318.570312 202.992188 318.195312 202.992188 C 317.695312 202.992188 317.246094 202.894531 316.851562 202.695312 C 316.464844 202.488281 316.164062 202.179688 315.945312 201.773438 C 315.726562 201.359375 315.617188 200.851562 315.617188 200.257812 C 315.617188 199.675781 315.714844 199.175781 315.914062 198.757812 C 316.109375 198.332031 316.386719 198.007812 316.742188 197.789062 C 317.09375 197.5625 317.511719 197.445312 317.992188 197.445312 Z M 317.976562 198.164062 C 317.558594 198.164062 317.226562 198.300781 316.976562 198.570312 C 316.734375 198.832031 316.59375 199.207031 316.554688 199.695312 L 319.273438 199.695312 C 319.273438 199.238281 319.167969 198.867188 318.960938 198.585938 C 318.75 198.304688 318.421875 198.164062 317.976562 198.164062 Z M 317.976562 198.164062 " transform=" rotate(  340 294.046 199.9) " style="fill:none;stroke-width:3;stroke-linecap:butt;stroke-linejoin:round;stroke:rgb(100%,100%,100%);stroke-opacity:0.6;stroke-miterlimit:10;"/>
  <g transform=" rotate(  340 294.046 199.9) " style="fill:rgb(13.333333%,13.333333%,13.333333%);fill-opacity:1;">
   <use xlink:href="#glyph0-1" y="202.90003" x="267.860817"/>
   <use xlink:href="#glyph0-2" y="202.90003" x="273.020817"/>
   <use xlink:href="#glyph0-3" y="202.90003" x="278.660817"/>
   <use xlink:href="#glyph0-3" y="202.90003" x="281.240817"/>
   <use xlink:href="#glyph0-4" y="202.90003" x="283.820817"/>
   <use xlink:href="#glyph0-5" y="202.90003" x="289.670817"/>
   <use xlink:href="#glyph0-6" y="202.90003" x="297.530817"/>
   <use xlink:href="#glyph0-7" y="202.90003" x="302.870817"/>
   <use xlink:href="#glyph0-8" y="202.90003" x="309.050817"/>
   <use xlink:href="#glyph0-9" y="202.90003" x="311.630817"/>
   <use xlink:href="#glyph0-2" y="202.90003" x="315.070817"/>
  </g>
 </g>
</svg>

<svg xmlns="http://www.w3.org/2000/svg" xmlns:xlink="http://www.w3.org/1999/xlink" viewBox="0 0 497 279"> <defs overflow="visible" style="stroke:none">  <path id="i" d="M3.3-4.7H2V0H1v-4.7H.3V-5l.7-.4v-.3c0-.7.2-1.2.5-1.5.5-.3.8-.5 1.3-.5l.6.1.6.1-.4.7h-.3L2.8-7c-.2 0-.5 0-.6.4-.2.2-.2.5-.2.9v.3h1.3Zm0 0"/>  <path id="h" d="M1.3-7.4c.1 0 .3 0 .4.2l.1.4-.1.4-.4.2-.4-.3-.1-.3.1-.4.4-.2Zm.4 2V0H.8v-5.4Zm0 0"/>  <path id="g" d="M3.4-5.5c.7 0 1.2.2 1.6.5.2.3.4.8.4 1.5V0h-.9v-3.4c0-.9-.4-1.3-1.2-1.3-.6 0-1 .1-1.2.5-.3.2-.4.8-.4 1.4V0H.8v-5.4h.8v.8h.2c.2-.4.3-.5.7-.7l1-.2Zm0 0"/>  <path id="f" d="M1.7-7.6v4.8L2-3v-.3l.4-.2L4-5.4h1L2.9-3l2.4 3H4.2L2.3-2.5l-.6.5v2H.8v-7.6Zm0 0"/>  <path id="e" d="m5.2 0-.9-3A18 18 0 0 1 4-4.5 34.3 34.3 0 0 1 3.5-3l-1 3h-.9L.2-5.4h.9l.6 2.9A40 40 0 0 1 2-1l.3-.3.1-.5a6 6 0 0 1 .1-.5l1-3h1l.7 2.9.3.8.2.6.3-.6v-1l.8-2.7h1L6.3 0Zm0 0"/>  <path id="d" d="M5.5-2.7c0 .9-.2 1.7-.7 2-.4.7-1 .9-1.8.9-.5-.2-.9-.2-1.3-.4-.3-.2-.6-.6-.7-1C.6-1.6.5-2 .5-2.7c0-.9.3-1.6.7-2 .5-.5 1-.8 1.8-.8.5 0 1 .2 1.3.5.4 0 .7.4.9.9.2.2.3.7.3 1.3Zm-4 0c0 .7 0 1.2.3 1.5.3.4.7.6 1.2.6.6 0 1-.2 1.2-.6.3-.3.4-.8.4-1.5s-.1-1.1-.4-1.5c-.2-.3-.6-.5-1.2-.5-.5 0-1 .2-1.2.5-.2.4-.3.9-.3 1.5Zm0 0"/>  <path id="c" d="M1.7 0H.8v-7.6h1Zm0 0"/>  <path id="b" d="M3-5.5c.3 0 .7.1 1 .3a2 2 0 0 1 1 .9v1.8H1.5c0 .5.1 1 .4 1.4.3.3.7.4 1.3.4H4l.9-.3v.8L4 0a5 5 0 0 1-1 0 3 3 0 0 1-1.2-.1 2.2 2.2 0 0 1-1-1.1c0-.2-.2-.8-.2-1.3-.1-.7 0-1.2.2-1.6.2-.5.5-.9.9-1 .3-.2.7-.4 1.2-.4Zm0 .8c-.6 0-.9.1-1 .4-.4.2-.6.6-.6 1.1h2.8c0-.5-.1-.8-.3-1.1-.2-.3-.5-.4-1-.4Zm0 0"/>  <path id="a" d="m2.8-3.6 1.9-3.5h1L3.3-2.8V0h-1v-2.7L0-7.1h1Zm0 0"/>  <path d="M1 0v-7.1h4V0Zm.4-.5h3.1v-6.1h-3Zm.1 0"/> </defs> <image xlink:href="svg/9/90_27.jpg" width="497" height="279"/> <path d="m270.7 199.3 1.8-3.5h1l-2.4 4.2v3h-.9v-2.8l-2.2-4.4h.9Zm5.3-1.9c.3 0 .7.1 1 .3a2 2 0 0 1 1 .9v1.8h-3.5c0 .6.1 1 .4 1.4.3.2.8.4 1.3.4h.8l.9-.4v.8c-.3.2-.5.4-.8.4a5 5 0 0 1-1 0 3 3 0 0 1-1.3-.2 2.2 2.2 0 0 1-1-1.1l-.1-1.3c-.1-.7-.1-1.2.2-1.6.1-.5.4-.8.8-1 .3-.2.8-.4 1.2-.4Zm0 .8c-.6 0-.9.1-1 .4-.4.2-.6.6-.6 1.1h2.8c0-.5 0-.8-.2-1.1-.3-.3-.6-.4-1-.4Zm4.4 4.7h-.9v-7.6h.9Zm2.6 0h-1v-7.6h1Zm6.3-2.7c0 .9-.2 1.6-.7 2-.4.7-1 .8-1.8.8-.4 0-.8-.1-1.2-.3-.4-.2-.7-.7-1-1l-.1-1.5c-.1-.9.1-1.6.5-2 .5-.5 1-.8 2-.8.3 0 .8.2 1 .4.5.2.8.5 1.1 1l.1 1.3Zm-4 0c0 .6.1 1.2.3 1.5.4.4.7.6 1.4.6.4 0 .8-.3 1-.6.3-.3.4-.9.4-1.5s-.1-1.1-.4-1.5c-.2-.3-.6-.5-1.2-.5-.5 0-.8.2-1.2.5-.2.4-.3.9-.3 1.5Zm9.7 2.7-1-3a18 18 0 0 1-.4-1.5 34.3 34.3 0 0 1-.4 1.6l-1 2.9h-.9l-1.4-5.4h.8l.7 2.9.2.9.2.7.2-.4v-.6a6 6 0 0 1 .2-.4l1-3h.8l1 2.9.1.8.3.7.1-.7.3-1 .7-2.7h1l-1.7 5.4Zm4.3-7.6v4.8l.1-.1.3-.4.2-.2 1.7-1.9h1l-2.1 2.3 2.3 3.2h-1l-2.1-2.6-.4.5v2.1h-.9v-7.7Zm7 2.1c.7 0 1.1.2 1.4.6.4.2.5.7.5 1.4v3.6h-.8v-3.5c0-.9-.4-1.3-1.2-1.3-.6 0-1 .1-1.3.5-.2.3-.3.8-.3 1.3v3h-.9v-5.5h.7l.2.8.7-.7 1-.2Zm4-1.9c.2 0 .3 0 .4.2l.3.3c-.1.3-.1.4-.3.5l-.4.1h-.3l-.2-.6c0-.1 0-.2.2-.3l.3-.2Zm.5 2v5.5h-1v-5.5Zm4.2.7h-1.5v4.8h-.8v-4.8h-1v-.4l1.1-.3v-.3c-.1-.7.2-1.2.4-1.5.3-.3.7-.5 1.3-.5l.5.1.5.1-.2.7h-.4l-.4-.1c-.3 0-.5 0-.7.3l-.2.9v.3h1.3Zm3-.8 1.2.3a2 2 0 0 1 .7.9c.2.4.3.8.3 1.3v.5h-3.7c0 .6.2 1 .5 1.4.3.2.7.4 1.2.4h1l.8-.4v.8l-1 .4a5 5 0 0 1-.8 0 3 3 0 0 1-1.3-.2 2.2 2.2 0 0 1-1-1.1c-.2-.2-.3-.7-.3-1.3 0-.7.1-1.2.4-1.6.1-.5.4-.8.7-1 .4-.2.8-.4 1.3-.4Zm0 .8c-.4 0-.8.1-1 .4-.3.2-.4.6-.4 1.1h2.7c0-.5-.1-.8-.3-1.1-.3-.3-.6-.4-1-.4Zm0 0" style="fill:none;stroke-width:3;stroke-linecap:butt;stroke-linejoin:round;stroke:#fff;stroke-opacity:.6;stroke-miterlimit:10" transform=" rotate(  340 294.046 199.9) "/> <g style="fill:#222;fill-opacity:1" transform=" rotate(  340 294.046 199.9) ">  <use xlink:href="#a" x="267.9" y="202.9"/>  <use xlink:href="#b" x="273" y="202.9"/>  <use xlink:href="#c" x="278.7" y="202.9"/>  <use xlink:href="#c" x="281.2" y="202.9"/>  <use xlink:href="#d" x="283.8" y="202.9"/>  <use xlink:href="#e" x="289.7" y="202.9"/>  <use xlink:href="#f" x="297.5" y="202.9"/>  <use xlink:href="#g" x="302.9" y="202.9"/>  <use xlink:href="#h" x="309.1" y="202.9"/>  <use xlink:href="#i" x="311.6" y="202.9"/>  <use xlink:href="#b" x="315.1" y="202.9"/> </g></svg>
